server/website/public/icons/base/business.svg

<svg width="48" height="48" viewBox="0 0 48 48" fill="none" xmlns="http://www.w3.org/2000/svg">
<path d="M19.2 33.7778V31.3333H2.424L2.4 41.1111C2.4 43.8244 4.536 46 7.2 46H40.8C43.464 46 45.6 43.8244 45.6 41.1111V31.3333H28.8V33.7778H19.2ZM43.2 11.7778H33.576V6.88889L28.776 2H19.176L14.376 6.88889V11.7778H4.8C2.16 11.7778 0 13.9778 0 16.6667V24C0 26.7133 2.136 28.8889 4.8 28.8889H19.2V24H28.8V28.8889H43.2C45.84 28.8889 48 26.6889 48 24V16.6667C48 13.9778 45.84 11.7778 43.2 11.7778ZM28.8 11.7778H19.2V6.88889H28.8V11.7778Z" fill="black"/>
</svg>

<svg width="48" height="48" fill="none" xmlns="http://www.w3.org/2000/svg"><path d="M19.2 33.778v-2.445H2.424L2.4 41.111C2.4 43.824 4.536 46 7.2 46h33.6c2.664 0 4.8-2.176 4.8-4.889v-9.778H28.8v2.445h-9.6zm24-22h-9.624v-4.89L28.776 2h-9.6l-4.8 4.889v4.889H4.8c-2.64 0-4.8 2.2-4.8 4.889V24c0 2.713 2.136 4.889 4.8 4.889h14.4V24h9.6v4.889h14.4c2.64 0 4.8-2.2 4.8-4.889v-7.333c0-2.69-2.16-4.89-4.8-4.89zm-14.4 0h-9.6v-4.89h9.6v4.89z" fill="#000"/></svg>
